X:1
T:Dostoino est
T:Dostoino est
T:Op. 37
T:Mihail Ippolitov-Ivanov
C:Mihail Ippolitov-Ivanov
%%score [ 1 2 3 4 ]
L:1/8
Q:1/4=60
M:3/2
K:C
V:1 treble nm="Soprano"
V:2 treble nm="Alto"
V:3 treble-8 nm="Tenor"
V:4 bass nm="Bass"
V:1
"^Очень медленно" z2!p! G2!>(! c4 B4 | A2!>)! z2 z4 z4 | z2!mf! A2!>(! e4 d4 | c2!>)! z2 z4 z4 | %4
w: Do- stoi- no|est,|do- stoi- no|est,|
 z2!f! c2 g4 (f2 e2) | d2 z2!f! !>!f4 e2 d2 | c3 c c2!<(! c2 e2 d2!<)! | %7
w: do- stoi- no _|est ja- ko vo|is- tin- nu bla- zhi- ti|
!>(! c4!>)!!p! B2 A2 c2 B2 | A2 z2 z4 z4 | z4!p! A4 f2 e2 |!>(! e3 d d2!>)! z2 z4 | %11
w: Tja, Bo- go- ro- di-|tsu,|pri- sno- bla-|zhen- nu- iu|
 z4!mf! e2 e2 g2 f2 |!>(! f3 e e2!>)!!f! e2!<(! f2 [eg]2!<)! | %13
w: i pre- ne- po-|rotsj- nu- iu i Ma- ter|
!>(! [fa]4 A2!>)!!mf! A2!<(! B2 ^c2!<)! | d2 A2!f! f4 (e2 d2) |!>(! d3 c c4!>)! z2!mf! [ce]2 | %16
w: Bo- ga, i Ma- ter|Bo- ga, Bo- ga _|na- sje- go. Tsjest-|
!<(! [eg]2 [df][ce]!<)!!>(! [ce]3 [Bd] [Bd]2!>)!!mf! [Bd]2 | %17
w: nei- sju- iu He- ru- vim i|
 [df]2 [ce][Bd] [Bd]2!<(! [Bd][ce] [df]2!<)! [ce][Bd] | z2!mf!!>(! [Bd]c c2!>)! z2!f! c2 c2 | %19
w: slav- nei- sju- iu bez srav- ne- ni- ia|Se- ra- fim, bez is-|
!>(! e3 d c2!>)! z2!f! c2 c2 | e2 d2!>(! d3 c c2!>)! z2 | %21
w: tle- ni- ia Bo- ga|Slo- va rozhd- sju- iu,|
!f! [df]3 [ce] [Bd]2!<(! [Bd][Bd]!<)! [eg]3 [df] | [ce]2 z2!f! e2 dc!>(! d2 d2!>)! | %23
w: su- sju- iu Bo- go- ro- di-|tsu Tja ve- li- tsja- em,|
!f! !>!f4 e2 d2!>(! (d3 c)!>)! | c2 z2 z4 z2!mf! A2 | f2 e2!>(! e2 d2!>)! z4 | %26
w: Tja ve- li- tsja- *|em, Tja|ve- li- tsja- em,|
!f!!<(! d4 e2 f2!<)! (f3 e) | e4!p!!<(! E4 G2 A2!<)! |!>(! (G4 F4)!>)!!p! E4- | E4 z4 z4 || %30
w: Tja ve- li- tsja- *|em, Tja ve- li-|tsja- * em.|_|
[M:4/4][Q:1/4=116]"^Скоро" z4!f! c4 | [Be]4 [Bg]4 |!>(! c8!>)! || z4!f! c4 |!>(! e8!>)! |] %35
w: I|vseh i|vsja.|A-|min.|
V:2
 z2!p! E2!>(! A4 G4 | F2!>)! z2 z4 z4 | z2!mf! F2!>(! c4 B4 | A2!>)! z2 z4 z4 | %4
w: Do- stoi- no|est,|do- stoi- no|est,|
 z2!f! A2 e4 (d2 c2) | A2 z2!f! !>!d4 c2 B2 | A3 A A2!<(! A2 A2 A2!<)! | %7
w: do- stoi- no _|est ja- ko vo|is- tin- nu bla- zhi- ti|
!>(! A4!>)!!p! E2 E2 E2 E2 | E2 z2 z4 z4 | z4!p! F4 d2 c2 |!>(! c3 B B2!>)! z2 z4 | %11
w: Tja, Bo- go- ro- di-|tsu,|pri- sno- bla-|zhen- nu- iu|
 z4!mf! c2 c2 e2 d2 |!>(! d3 c c2!>)!!f! c2!<(! c2 c2!<)! |!>(! c4 F2!>)!!mf! A2!<(! A2 A2!<)! | %14
w: i pre- ne- po-|rotsj- nu- iu i Ma- ter|Bo- ga, i Ma- ter|
 F2 F2!f! A4 (G2 F2) |!>(! F3 E E4!>)! z2!mf! [EG]2 | %16
w: Bo- ga, Bo- ga _|na- sje- go. Tsjest-|
!<(! [CE]2 [DF][EG]!<)!!>(! [FA]3 [FA] [FA]2!>)!!mf! [FA]2 | %17
w: nei- sju- iu He- ru- vim i|
 [DF]2 [EG][FA] [FA]2!<(! [FA][EG] [DF]2!<)! [EG][FA] | z2!mf!!>(! [FA][EG] [EG]2!>)! z2!f! G2 G2 | %19
w: slav- nei- sju- iu bez srav- ne- ni- ia|Se- ra- fim, bez is-|
!>(! c3 B A2!>)! z2!f! A2 A2 | c2 B2!>(! B3 A A2!>)! z2 |!f! A3 G G2!<(! GG!<)! B3 A | %22
w: tle- ni- ia Bo- ga|Slo- va rozhd- sju- iu,|su- sju- iu Bo- go- ro- di-|
 A2 z2!f! G2 FE!>(! F2 F2!>)! |!f! !>!A4 G2 F2!>(! (F3 E)!>)! | E2 z2 z4 z2!mf! F2 | %25
w: tsu Tja ve- li- tsja- em,|Tja ve- li- tsja- *|em, Tja|
 d2 c2!>(! c2 B2!>)! z4 |!f!!<(! B4 c2 d2!<)! (d3 c) | c4!p!!<(! C4 D2 F2!<)! | %28
w: ve- li- tsja- em,|Tja ve- li- tsja- *|em, Tja ve- li-|
!>(! (G4 G,4)!>)!!p! G,4- | G,4 z4 z4 ||[M:4/4] z4!f! A4 | G4 G4 |!>(! G8!>)! || %33
w: tsja- * em.|_|I|vseh i|vsja.|
 !fermata!z4!f! A4 |!>(! G8!>)! |] %35
w: A-|min.|
V:3
 z12 | z2!p! F2!>(! c4 B4 | A2!>)! z2 z4 z4 | z2!mf! A2!>(! e4 d4 | c2!>)!!f! A2 A4 (B2 c2) | %5
w: |Do- stoi- no|est,|do- stoi- no|est, do- stoi- no _|
 d2 z2!f! !>!A4 c2 f2 | e3 e e2!<(! e2 g2 f2!<)! |!>(! e4!>)!!p! d2 c2 e2 d2 | %8
w: est ja- ko vo|is- tin- nu bla- zhi- ti|Tja, Bo- go- ro- di-|
 c2 z2!p! [CE]4 [Ac]2 [GB]2 |!>(! [GB]3 [FA] [FA]2!>)! z2 z4 | z4!mf! [GB]2 [GB]2 [eg]2 [df]2 | %11
w: tsu, pri- sno- bla-|zhen- nu- iu|i pre- ne- po-|
!>(! [df]3 [ce] [ce]2!>)! z2 z4 | z4 z2!f! c2!<(! c2 [ce]2!<)! | %13
w: rotsj- nu- iu|i Ma- ter|
!>(! [cf]4 c2!>)!!mf! A2!<(! A2 A2!<)! | A2 A2!f! G4 (A2 B2) |!>(! B3 G G4!>)! z4 | z12 | z12 | %18
w: Bo- ga, i Ma- ter|Bo- ga, Bo- ga _|na- sje- go.|||
 z4 z4!f! e2 e2 |!>(! c3 d e2!>)! z2!f! e2 e2 | c2 d2!>(! d3 e e2!>)! z2 | %21
w: bez is-|tle- ni- ia Bo- ga|Slo- va rozhd- sju- iu,|
!f! A3 c d2!<(! BB!<)! B3 d | e2 z2!f! A2 AA!>(! A2 A2!>)! |!f! !>!G4 A2 B2!>(! (B3 G)!>)! | %24
w: su- sju- iu Bo- go- ro- di-|tsu Tja ve- li- tsja- em,|Tja ve- li- tsja- *|
 G2!p! [CE]2 [Ac]2 [GB]2!>(! [GB]2 [FA]2!>)! | z4 z2!mf! [GB]2 [eg]2 [df]2 | %26
w: em, Tja ve- li- tsja- em,|Tja ve- li-|
!>(! [df]2 [df]2!>)!!<(! [ce]2 [Bd]2!<)! ([Bd]3 [ce]) | [ce]4!p!!<(! [ce]4 A2 B2!<)! | %28
w: tsja- em, ve- li- tsja- *|em, Tja ve- li-|
!>(! (c4 B4)!>)!!p! c4- | c4 z4 z4 ||[M:4/4] z4!f! [ce]4 | [Be]4 [Bf]4 |!>(! [ce]8!>)! || %33
w: tsja- * em.|_|I|vseh i|vsja.|
 !fermata!z4!f! c4 |!>(! c8!>)! |] %35
w: A-|min.|
V:4
 z12 | z2!p! D,2!>(! A,4 G,4 | F,2!>)! z2 z4 z4 | z2!mf! F,2!>(! C4 B,4 | %4
w: |Do- stoi- no|est,|do- stoi- no|
 A,2!>)!!f! A,2 D,4 (D,2 E,2) | F,2 z2!f! !>!D,4 E,2 G,2 | A,3 A, A,2!<(! A,2 [D,A,]2 [D,A,]2!<)! | %7
w: est, do- stoi- no _|est ja- ko vo|is- tin- nu bla- zhi- ti|
!>(! [E,A,]4!>)!!p! E,2 E,2 [E,^F,]2 [E,^G,]2 | A,2 z2!p! C,4 A,2 G,2 |!>(! G,3 F, F,2!>)! z2 z4 | %10
w: Tja, Bo- go- ro- di-|tsu, pri- sno- bla-|zhen- nu- iu|
 z4!mf! G,2 G,2 E2 D2 |!>(! D3 C C2!>)! z2 z4 | z4 z2!f! C2!<(! A,2 G,2!<)! | %13
w: i pre- ne- po-|rotsj- nu- iu|i Ma- ter|
!>(! F,4 F,2!>)!!mf! A,2!<(! F,2 E,2!<)! | D,2 D,2!f! G,,4 G,,4 |!>(! C,3 C, C,4!>)! z4 | z12 | %17
w: Bo- ga, i Ma- ter|Bo- ga, Bo- ga|na- sje- go.||
 z12 | z8!f! C2 C2 |!>(! A,3 B, C2!>)! z2!f! C2 C2 | A,2 B,2!>(! B,3 C C2!>)! z2 | %21
w: |bez is-|tle- ni- ia Bo- ga|Slo- va rozhd- sju- iu,|
!f! D,3 E, G,2!<(! G,G,!<)! E,3 F, | A,2 z2!f! D,2 D,A,,!>(! D,2 D,2!>)! | %23
w: su- sju- iu Bo- go- ro- di-|tsu Tja ve- li- tsja- em,|
!f! !>!G,,4 G,,2 G,,2!>(! [C,,C,]4!>)! | [C,,C,]2!p! [C,,C,]2 [C,,C,]8- | %25
w: Tja ve- li- tsja-|em, Tja ve-|
 [C,,C,]2 [C,,C,]2 [C,,C,]8- | [C,,C,]2!<(! [C,,C,]2 [C,,C,]2 [C,,C,]2!<)!!>(! [C,,C,]4!>)! | %27
w: * li- tsja-|* em, ve- li- tsja-|
 [C,,C,]4!p!!<(! A,,4 G,,2 F,,2!<)! |!>(! (E,,4 G,,4)!>)!!p! [C,,C,]4- | [C,,C,]4 z4 z4 || %30
w: em, Tja ve- li-|tsja- * em.|_|
[M:4/4] z4!f! A,4 | E,4 D,4 |!>(! C,8!>)! || !fermata!z4!f! F,4 |!>(! C,8!>)! |] %35
w: I|vseh i|vsja.|A-|min.|

